**kern	**kern	**dynam
*part1	*part1	*part1
*staff2	*staff1	*
*I"Piano	*	*
*clefF4	*clefG2	*
*k[b-]	*k[b-]	*
=1	=1	=1
*^	*	*
*	*	*tremolo	*
1G 1B-	1DD	(32dLLL	.
.	.	32e-X	.
.	.	32d	.
.	.	32e-X	.
.	.	32d	.
.	.	32e-X	.
.	.	32d	.
.	.	32e-X	.
.	.	32d	.
.	.	32e-X	.
.	.	32d	.
.	.	32e-X	.
.	.	32d	.
.	.	32e-X	.
.	.	32d	.
.	.	32e-XJJJ	.
.	.	32dLLL	.
.	.	32e-)	.
.	.	32d	.
.	.	32e-)	.
.	.	32d	.
.	.	32e-)	.
.	.	32d	.
.	.	32e-)	.
.	.	32d	.
.	.	32e-)	.
.	.	32d	.
.	.	32e-)	.
.	.	32d	.
.	.	32e-)	.
.	.	32d	.
.	.	32e-)JJJ	.
*	*	*Xtremolo	*
=	=	=	=
!	!	!	!LO:DY:a
(8DDL	1F 1A	1d	<
16EEL	.	.	.
16FFJJ	.	.	.
16GGLL	.	.	.
16AA	.	.	.
16BBn	.	.	.
16C#XJJ	.	.	.
!	!	!	!LO:DY:a
8DL	.	.	[ >
16CnL	.	.	.
16BB-XJJ	.	.	.
16AALL	.	.	.
16GG	.	.	.
16FF	.	.	.
16EEJJ)	.	.	.
=	=	=	=
2E 2A	8AAL	2c#X	]
.	(16GG#XL	.	.
.	16AAJJ	.	.
.	16GG#LL	.	.
.	16AA	.	.
.	16GG#	.	.
.	16AAJJ	.	.
*tremolo	*	*	*
2ryy	32GG#LLL	4r	.
.	32AA	.	.
.	32GG#	.	.
.	32AA	.	.
.	32GG#	.	.
.	32AA	.	.
.	32GG#	.	.
.	32AA	.	.
.	32GG#	4cc#X 4ee 4aa	.
.	32AA	.	.
.	32GG#	.	.
.	32AA	.	.
.	32GG#	.	.
.	32AA	.	.
.	32GG#	.	.
.	32AAJJJ	.	.
*v	*v	*	*
=	=	=
8GG#XL)	2dd 2ff 2bb-	>
(16G#XL	.	.
16AJJ	.	.
16G#LL	.	.
16A	.	.
16G#	.	.
16AJJ	.	.
32F#XLLL	2ccn 2ee 2bb-	.
32Gn)	.	.
32F#X	.	.
32Gn)	.	.
32F#X	.	.
32Gn)	.	.
32F#X	.	.
32Gn)	.	.
32F#X	.	.
32Gn)	.	.
32F#X	.	.
32Gn)	.	.
32F#X	.	.
32Gn)	.	.
32F#X	.	.
32Gn)JJJ	.	.
=	=	=
(32ELLL	2cc 2ee 2aa	.
32Fn	.	.
32E	.	.
32Fn	.	.
32E	.	.
32Fn	.	.
32E	.	.
32Fn	.	.
32E	.	.
32Fn	.	.
32E	.	.
32Fn	.	.
32E	.	.
32Fn	.	.
32E	.	.
32FnJJJ	.	.
32ELLL	2b-X 2dd 2aa	.
32F)	.	.
32E	.	.
32F)	.	.
32E	.	.
32F)	.	.
32E	.	.
32F)	.	.
32E	.	.
32F)	.	.
32E	.	.
32F)	.	.
32E	.	.
32F)	.	.
32E	.	.
32F)JJJ	.	.
=	=	=
(32D#XLLL	2b- 2dd 2gg	.
32E	.	.
32D#X	.	.
32E	.	.
32D#X	.	.
32E	.	.
32D#X	.	.
32E	.	.
32D#X	.	.
32E	.	.
32D#X	.	.
32E	.	.
32D#X	.	.
32E	.	.
32D#X	.	.
32EJJJ	.	.
32D#LLL	2a 2cc#X 2gg	.
32E)	.	.
32D#	.	.
32E)	.	.
32D#	.	.
32E)	.	.
32D#	.	.
32E)	.	.
32D#	.	.
32E)	.	.
32D#	.	.
32E)	.	.
32D#	.	.
32E)	.	.
32D#	.	.
32E)JJJ	.	.
=	=	=
(32C#XLLL	2a 2dd 2ff	.
32Dn)	.	.
32C#X	.	.
32Dn)	.	.
32C#X	.	.
32Dn)	.	.
32C#X	.	.
32Dn)	.	.
32C#X	.	.
32Dn)	.	.
32C#X	.	.
32Dn)	.	.
32C#X	.	.
32Dn)	.	.
32C#X	.	.
32Dn)	.	.
32C#X	4r	] p
32Dn)	.	.
32C#X	.	.
32Dn)	.	.
32C#X	.	.
32Dn)	.	.
32C#X	.	.
32Dn)JJJ	.	.
*Xtremolo	*	*
(16DDLL	4d 4f 4a	.
16FF	.	.
16AA	.	.
16DJJ)	.	.
=	=	=
*-	*-	*-
!!!system-decoration: {(s1,s2)}
